X:1
T:Belovèd, Sleep, 46.86
T:William Henry Clark (1854-?)
T:Belovèd, Sleep, 46.86
T:Public Domain
C:William Henry Clark (1854-?)
Z:Public Domain
%%score ( 1 2 ) ( 3 4 )
L:1/8
M:6/4
K:C
V:1 treble 
V:2 treble 
V:3 bass 
V:4 bass 
V:1
 x12 || [EG]6 (D2 E2) [FG]2 | [EG]6- [EG]4 [EG]2 | [FA]4 [FA]2 [Fc]4 [FA]2 | [EG]6- [EG]4 [EG]2 | %5
 [Gc]4 [Gd]2 [Ge]4 [EG]2 | [FA]4 [Fc]2 [Fc]4 [FA]2 | (D2 E2) [FG]2 [FG]4 [FB]2 | [Ec]6- [Ec]4 z2 || %9
 [EG]2 | (D4 E2) [FG]6 | [Ec]6- [Ec]4 |] %12
V:2
 x12 || x6 G4 x2 | x12 | x12 | x12 | x12 | x12 | G4 x8 | x12 || x2 | G6 x6 | x10 |] %12
V:3
 x12 || [C,C]6 (B,2 C2) [G,D]2 | [C,C]6- [C,C]4 [C,C]2 | [F,C]4 [F,C]2 [F,A,]4 [F,C]2 | %4
 [C,C]6- [C,C]4 [C,C]2 | [E,C]4 [G,B,]2 C4 [C,C]2 | [F,C]4 [F,A,]2 [F,A,]4 [F,C]2 | %7
 (B,2 C2) [G,D]2 [G,B,]4 [G,D]2 | [C,C]6- [C,C]4 z2 || [C,C]2 | (B,4 C2) [G,D]6 | [C,C]6- [C,C]4 |] %12
V:4
 x12 || x6 G,4 x2 | x12 | x12 | x12 | x6 C4 x2 | x12 | G,4 x8 | x12 || x2 | G,6 x6 | x10 |] %12

